dist/svg/u1F5FB.svg

<?xml version="1.0" encoding="UTF-8"?><svg id="Layer_1" xmlns="http://www.w3.org/2000/svg" viewBox="0 0 40 40"><rect width="40" height="40" style="fill:none;"/><g><path d="M15.44778,15.86692c2.07635,0,2.07635,2.16418,4.1527,2.16418,2.07816,0,2.07816-2.16418,4.15638-2.16418,2.07958,0,2.07958,2.16418,4.15916,2.16418,1.49595,0,1.92297-1.11248,2.81489-1.74096l-4.78656-8.57598c-.49228-.88205-1.42338-1.42865-2.43357-1.42865h-7.02156c-1.01019,0-1.94129,.5466-2.43357,1.42865l-5.04064,9.03118c.59536,.60013,1.10908,1.28576,2.28059,1.28576,2.07607,0,2.07607-2.16418,4.15219-2.16418Z" style="fill:#e5e8eb;"/><path d="M38.14258,29.56916l-7.41167-13.27902c-.89191,.62848-1.31893,1.74096-2.81489,1.74096-2.07958,0-2.07958-2.16418-4.15916-2.16418-2.07822,0-2.07822,2.16418-4.15638,2.16418-2.07635,0-2.07635-2.16418-4.1527-2.16418-2.07612,0-2.07612,2.16418-4.15219,2.16418-1.17151,0-1.68522-.68563-2.28059-1.28576L1.85742,29.56916c-1.03684,1.85777,.30613,4.14533,2.43362,4.14533h31.41792c2.12749,0,3.47047-2.28756,2.43362-4.14533Z" style="fill:#64a7ff;"/></g></svg>

<svg id="Layer_1" data-name="Layer 1" xmlns="http://www.w3.org/2000/svg" viewBox="0 0 40 40"><defs><style>.cls-1{fill:none;}.cls-2{fill:#e5e8eb;}.cls-3{fill:#64a7ff;}</style></defs><rect class="cls-1" width="40" height="40"/><path class="cls-2" d="M15.448,15.867c2.076,0,2.076,2.164,4.152,2.164s2.079-2.164,4.157-2.164,2.079,2.164,4.159,2.164c1.5,0,1.923-1.112,2.815-1.741L25.944,7.714a2.785,2.785,0,0,0-2.433-1.428H16.489a2.785,2.785,0,0,0-2.433,1.428L9.015,16.745A2.978,2.978,0,0,0,11.3,18.031C13.372,18.031,13.372,15.867,15.448,15.867Z"/><path class="cls-3" d="M38.143,29.569,30.731,16.29c-.892.629-1.319,1.741-2.815,1.741-2.08,0-2.08-2.164-4.159-2.164s-2.078,2.164-4.157,2.164-2.076-2.164-4.152-2.164-2.076,2.164-4.152,2.164a2.978,2.978,0,0,1-2.281-1.286L1.857,29.569a2.787,2.787,0,0,0,2.434,4.145H35.709A2.787,2.787,0,0,0,38.143,29.569Z"/></svg>
